svgs/centsation.svg

<svg width="192" height="192" viewBox="0 0 192 192" fill="none" xmlns="http://www.w3.org/2000/svg">
<path d="M85.8674 72.1849C76.8847 76.3727 70.6609 85.4613 70.6609 96.0005C70.6609 106.54 76.8849 115.627 85.8674 119.815V164.108C85.8674 167.195 83.1066 169.572 80.0889 168.878C46.811 161.226 22 131.502 22 96.0005C22 60.4986 46.811 30.7744 80.0889 23.1216C83.1066 22.4276 85.8674 24.8047 85.8674 27.8923V72.1849Z" stroke="black" stroke-width="12" stroke-linejoin="round"/>
<path d="M165.093 108.129C168.218 108.129 170.61 110.927 169.862 113.952C163.13 141.194 141.425 162.56 113.947 168.879C110.929 169.573 108.17 167.195 108.17 164.108V119.815C113.424 117.366 117.733 113.241 120.406 108.129H165.093Z" stroke="black" stroke-width="12" stroke-linejoin="round"/>
<path d="M108.17 27.8923C108.17 24.8047 110.929 22.4273 113.947 23.1212C141.425 29.4396 163.13 50.8065 169.862 78.0491C170.61 81.0742 168.218 83.8721 165.093 83.8721H120.406C117.733 78.7598 113.424 74.6342 108.17 72.1849V27.8923Z" stroke="black" stroke-width="12" stroke-linejoin="round"/>
</svg>

<svg xmlns="http://www.w3.org/2000/svg" width="192" height="192" fill="none" viewBox="0 0 192 192"><path stroke="#000" stroke-linejoin="round" stroke-width="12" d="M85.867 72.185C76.885 76.373 70.661 85.46 70.661 96s6.224 19.626 15.206 23.814v44.293c0 3.087-2.76 5.464-5.778 4.77C46.81 161.226 22 131.502 22 96.001s24.811-65.227 58.089-72.88c3.018-.693 5.778 1.684 5.778 4.771zm79.226 35.944c3.125 0 5.517 2.798 4.769 5.823-6.732 27.242-28.437 48.608-55.915 54.927-3.018.694-5.777-1.684-5.777-4.771v-44.293a26.43 26.43 0 0 0 12.236-11.686zM108.17 27.892c0-3.087 2.759-5.465 5.777-4.77 27.478 6.318 49.183 27.685 55.915 54.927.748 3.025-1.644 5.823-4.769 5.823h-44.687a26.43 26.43 0 0 0-12.236-11.687z"/></svg>
